X: 3338
M: C
L: 1/8
K: D
uA2 |\
[1 Adfa gfed | c2e2e2 :|\
[2 Adfa gece | d2f2d2 |]
|: f2 |\
afdf afba | gece geag |\
[1 fdAd fdgf | edcB A2 :|\
[2 fafd egec | d2f2d2 |]


